web/public/assets/bundle-studio.svg

<svg fill="none" height="44" viewBox="0 0 44 44" width="44" xmlns="http://www.w3.org/2000/svg"><rect fill="#d5ebff" height="44" rx="6" width="44"/><path clip-rule="evenodd" d="m16.2604 17.44c-.2364.2232-.2604.366-.2604.42s.024.1968.2604.42c.24.2268.6336.4716 1.1952.696 1.1172.4476 2.724.744 4.5444.744s3.426-.2964 4.5444-.744c.5616-.2244.9564-.4692 1.1952-.696.2364-.2232.2604-.366.2604-.42s-.024-.1968-.2604-.42c-.24-.2268-.6336-.4716-1.1952-.696-1.1184-.4476-2.724-.744-4.5444-.744s-3.4272.2964-4.5444.744c-.5616.2244-.9564.4692-1.1952.696zm11.7396 2.8404c-.2548.1381-.5177.2607-.7872.3672-1.3788.552-3.222.8724-5.2128.8724s-3.834-.3216-5.2128-.8724c-.2696-.1065-.5325-.2291-.7872-.3672v1.6956c0 .054.024.1968.2604.42.24.2268.6336.4716 1.1952.696 1.1172.4476 2.724.744 4.5444.744s3.426-.2964 4.5444-.744c.5616-.2244.9564-.4692 1.1952-.696.2364-.2232.2604-.366.2604-.42zm0 4.116c-.2548.1381-.5177.2607-.7872.3672-1.3788.552-3.222.8724-5.2128.8724s-3.834-.3216-5.2128-.8724c-.2696-.1065-.5325-.2291-.7872-.3672v1.7436c0 .054.024.1968.2604.42.24.2268.6336.4716 1.1952.696 1.1172.4476 2.724.744 4.5444.744s3.426-.2964 4.5444-.744c.5616-.2244.9564-.4692 1.1952-.696.2364-.2244.2604-.366.2604-.42zm1.8 1.7436c0 .708-.3624 1.2924-.8244 1.728-.4584.4344-1.0752.7848-1.7628 1.0596-1.3788.552-3.222.8724-5.2128.8724s-3.834-.3216-5.2128-.8724c-.6876-.276-1.3044-.624-1.764-1.0596-.4608-.4356-.8232-1.02-.8232-1.728v-8.28c0-.708.3624-1.2924.8244-1.728.4584-.4344 1.0752-.7848 1.7628-1.0596 1.3788-.552 3.222-.8724 5.2128-.8724s3.834.3216 5.2128.8724c.6876.276 1.3044.624 1.764 1.0596.4608.4356.8232 1.02.8232 1.728z" fill="#005bd3" fill-rule="evenodd" opacity=".92"/></svg>

<svg width="44" height="44" viewBox="0 0 44 44" fill="none" xmlns="http://www.w3.org/2000/svg">
<rect width="44" height="44" rx="6" fill="#D5EBFF"/>
<g opacity="0.92">
<path fill-rule="evenodd" clip-rule="evenodd" d="M16.2604 17.44C16.024 17.6632 16 17.806 16 17.86C16 17.914 16.024 18.0568 16.2604 18.28C16.5004 18.5068 16.894 18.7516 17.4556 18.976C18.5728 19.4236 20.1796 19.72 22 19.72C23.8204 19.72 25.426 19.4236 26.5444 18.976C27.106 18.7516 27.5008 18.5068 27.7396 18.28C27.976 18.0568 28 17.914 28 17.86C28 17.806 27.976 17.6632 27.7396 17.44C27.4996 17.2132 27.106 16.9684 26.5444 16.744C25.426 16.2964 23.8204 16 22 16C20.1796 16 18.5728 16.2964 17.4556 16.744C16.894 16.9684 16.4992 17.2132 16.2604 17.44ZM28 20.2804C27.7452 20.4185 27.4823 20.5411 27.2128 20.6476C25.834 21.1996 23.9908 21.52 22 21.52C20.0092 21.52 18.166 21.1984 16.7872 20.6476C16.5176 20.5411 16.2547 20.4185 16 20.2804V21.976C16 22.03 16.024 22.1728 16.2604 22.396C16.5004 22.6228 16.894 22.8676 17.4556 23.092C18.5728 23.5396 20.1796 23.836 22 23.836C23.8204 23.836 25.426 23.5396 26.5444 23.092C27.106 22.8676 27.5008 22.6228 27.7396 22.396C27.976 22.1728 28 22.03 28 21.976V20.2804ZM28 24.3964C27.7452 24.5345 27.4823 24.6571 27.2128 24.7636C25.834 25.3156 23.9908 25.636 22 25.636C20.0092 25.636 18.166 25.3144 16.7872 24.7636C16.5176 24.6571 16.2547 24.5345 16 24.3964V26.14C16 26.194 16.024 26.3368 16.2604 26.56C16.5004 26.7868 16.894 27.0316 17.4556 27.256C18.5728 27.7036 20.1796 28 22 28C23.8204 28 25.426 27.7036 26.5444 27.256C27.106 27.0316 27.5008 26.7868 27.7396 26.56C27.976 26.3356 28 26.194 28 26.14V24.3964ZM29.8 26.14C29.8 26.848 29.4376 27.4324 28.9756 27.868C28.5172 28.3024 27.9004 28.6528 27.2128 28.9276C25.834 29.4796 23.9908 29.8 22 29.8C20.0092 29.8 18.166 29.4784 16.7872 28.9276C16.0996 28.6516 15.4828 28.3036 15.0232 27.868C14.5624 27.4324 14.2 26.848 14.2 26.14V17.86C14.2 17.152 14.5624 16.5676 15.0244 16.132C15.4828 15.6976 16.0996 15.3472 16.7872 15.0724C18.166 14.5204 20.0092 14.2 22 14.2C23.9908 14.2 25.834 14.5216 27.2128 15.0724C27.9004 15.3484 28.5172 15.6964 28.9768 16.132C29.4376 16.5676 29.8 17.152 29.8 17.86V26.14Z" fill="#005BD3"/>
</g>
</svg>
